X: 091
T: The TRIUMPH
%R: reel
B: Jean White "100 Popular Hornpipes, Reels, Jigs and Country Dances", Boston 1880 p.38
F: http://www.loc.gov/resource/sm1880.09124.0#seq-1
Z: 2014 John Chambers <jc:trillian.mit.edu>
N: Added initial "pickup" rest to 2nd strain to fix the rhythm.
M: 2/4
L: 1/16
K: G
% - - - - - - - - - - - - - - - - - - - - - - - - - - - - -
ge |\
dBBG cAAF | Ggfg efge |\
dBBG cAAF | G2B2G2 :|
|: z2 |\
A3cB2d2 | A3cB2d2 |\
A3cB2d2 | dcBA G2 :|
|: B2 |\
BABc BdcB | AGAB AcBA |\
GABc defg | dcBA G2 H:|
% - - - - - - - - - - - - - - - - - - - - - - - - - - - - -

%%sep 1 1 500
%%sep 1 1 500
